gama.ui.shared/icons_svg/light/prefs/prefs.editor2.svg

<?xml version="1.0" encoding="UTF-8" standalone="no"?>
<!DOCTYPE svg PUBLIC "-//W3C//DTD SVG 1.1//EN" "http://www.w3.org/Graphics/SVG/1.1/DTD/svg11.dtd">
<svg version="1.1" xmlns="http://www.w3.org/2000/svg" xmlns:xl="http://www.w3.org/1999/xlink" xmlns:dc="http://purl.org/dc/elements/1.1/" viewBox="-952.5 -3582.6755 25 25" width="25" height="25">
  <defs/>
  <g id="SOURCES" stroke-dasharray="none" fill="none" stroke="none" fill-opacity="1" stroke-opacity="1">
    <title>SOURCES</title>
    <g id="SOURCES_Calque_2">
      <title>Calque 2</title>
      <g id="Graphic_9599">
        <path d="M -943.6 -3582.1755 L -936.4 -3582.1755 C -934 -3582.1755 -932.8 -3582.1755 -931.36 -3581.6955 C -930.16 -3581.2155 -928.96 -3580.0155 -928.48 -3578.8155 C -928 -3577.3755 -928 -3576.1755 -928 -3573.7755 L -928 -3566.5755 C -928 -3564.1755 -928 -3562.9755 -928.48 -3561.5355 C -928.96 -3560.3355 -930.16 -3559.1355 -931.36 -3558.6555 C -932.8 -3558.1755 -934 -3558.1755 -936.4 -3558.1755 L -943.6 -3558.1755 C -946 -3558.1755 -947.2 -3558.1755 -948.64 -3558.6555 C -949.84 -3559.1355 -951.04 -3560.3355 -951.52 -3561.5355 C -952 -3562.9755 -952 -3564.1755 -952 -3566.5755 L -952 -3573.7755 C -952 -3576.1755 -952 -3577.3755 -951.52 -3578.8155 C -951.04 -3580.0155 -949.84 -3581.2155 -948.64 -3581.6955 C -947.2 -3582.1755 -946 -3582.1755 -943.6 -3582.1755 M -943.6 -3582.1755" fill="#d07738"/>
        <path d="M -943.6 -3582.1755 L -936.4 -3582.1755 C -934 -3582.1755 -932.8 -3582.1755 -931.36 -3581.6955 C -930.16 -3581.2155 -928.96 -3580.0155 -928.48 -3578.8155 C -928 -3577.3755 -928 -3576.1755 -928 -3573.7755 L -928 -3566.5755 C -928 -3564.1755 -928 -3562.9755 -928.48 -3561.5355 C -928.96 -3560.3355 -930.16 -3559.1355 -931.36 -3558.6555 C -932.8 -3558.1755 -934 -3558.1755 -936.4 -3558.1755 L -943.6 -3558.1755 C -946 -3558.1755 -947.2 -3558.1755 -948.64 -3558.6555 C -949.84 -3559.1355 -951.04 -3560.3355 -951.52 -3561.5355 C -952 -3562.9755 -952 -3564.1755 -952 -3566.5755 L -952 -3573.7755 C -952 -3576.1755 -952 -3577.3755 -951.52 -3578.8155 C -951.04 -3580.0155 -949.84 -3581.2155 -948.64 -3581.6955 C -947.2 -3582.1755 -946 -3582.1755 -943.6 -3582.1755 M -943.6 -3582.1755" stroke="#cf7737" stroke-linecap="round" stroke-linejoin="round" stroke-width=".25"/>
      </g>
      <g id="Group_9620">
        <title>text-align-left</title>
        <g id="Graphic_9621">
          <path d="M -947.5 -3575.6755 C -947.78 -3575.6755 -948 -3575.8955 -948 -3576.1755 C -948 -3576.4555 -947.78 -3576.6755 -947.5 -3576.6755 L -932.5 -3576.6755 C -932.22 -3576.6755 -932 -3576.4555 -932 -3576.1755 C -932 -3575.8955 -932.22 -3575.6755 -932.5 -3575.6755 Z M -947.5 -3567.6755 C -947.78 -3567.6755 -948 -3567.8955 -948 -3568.1755 C -948 -3568.4555 -947.78 -3568.6755 -947.5 -3568.6755 L -932.5 -3568.6755 C -932.22 -3568.6755 -932 -3568.4555 -932 -3568.1755 C -932 -3567.8955 -932.22 -3567.6755 -932.5 -3567.6755 Z M -947.5 -3571.6755 C -947.78 -3571.6755 -948 -3571.8955 -948 -3572.1755 C -948 -3572.4555 -947.78 -3572.6755 -947.5 -3572.6755 L -938.5 -3572.6755 C -938.22 -3572.6755 -938 -3572.4555 -938 -3572.1755 C -938 -3571.8955 -938.22 -3571.6755 -938.5 -3571.6755 Z M -947.5 -3563.6755 C -947.78 -3563.6755 -948 -3563.8955 -948 -3564.1755 C -948 -3564.4555 -947.78 -3564.6755 -947.5 -3564.6755 L -938.5 -3564.6755 C -938.22 -3564.6755 -938 -3564.4555 -938 -3564.1755 C -938 -3563.8955 -938.22 -3563.6755 -938.5 -3563.6755 Z" fill="white"/>
        </g>
      </g>
    </g>
  </g>
</svg>

<svg height="25" viewBox="-952.5 -3582.675 25 25" width="25" xmlns="http://www.w3.org/2000/svg"><g fill="none"><path d="m-943.6-3582.1755h7.2c2.4 0 3.6 0 5.04.48 1.2.48 2.4 1.68 2.88 2.88.48 1.44.48 2.64.48 5.04v7.2c0 2.4 0 3.6-.48 5.04-.48 1.2-1.68 2.4-2.88 2.88-1.44.48-2.64.48-5.04.48h-7.2c-2.4 0-3.6 0-5.04-.48-1.2-.48-2.4-1.68-2.88-2.88-.48-1.44-.48-2.64-.48-5.04v-7.2c0-2.4 0-3.6.48-5.04.48-1.2 1.68-2.4 2.88-2.88 1.44-.48 2.64-.48 5.04-.48m0 0" fill="#d07738"/><path d="m-943.6-3582.1755h7.2c2.4 0 3.6 0 5.04.48 1.2.48 2.4 1.68 2.88 2.88.48 1.44.48 2.64.48 5.04v7.2c0 2.4 0 3.6-.48 5.04-.48 1.2-1.68 2.4-2.88 2.88-1.44.48-2.64.48-5.04.48h-7.2c-2.4 0-3.6 0-5.04-.48-1.2-.48-2.4-1.68-2.88-2.88-.48-1.44-.48-2.64-.48-5.04v-7.2c0-2.4 0-3.6.48-5.04.48-1.2 1.68-2.4 2.88-2.88 1.44-.48 2.64-.48 5.04-.48m0 0" stroke="#cf7737" stroke-linecap="round" stroke-linejoin="round" stroke-width=".25"/><path d="m-947.5-3575.6755c-.28 0-.5-.22-.5-.5s.22-.5.5-.5h15c.28 0 .5.22.5.5s-.22.5-.5.5zm0 8c-.28 0-.5-.22-.5-.5s.22-.5.5-.5h15c.28 0 .5.22.5.5s-.22.5-.5.5zm0-4c-.28 0-.5-.22-.5-.5s.22-.5.5-.5h9c.28 0 .5.22.5.5s-.22.5-.5.5zm0 8c-.28 0-.5-.22-.5-.5s.22-.5.5-.5h9c.28 0 .5.22.5.5s-.22.5-.5.5z" fill="#fff"/></g></svg>
